!!!!SEGMENT: pl-wumfc--r313--001-002_paderewski-ignacy-jan--vocal-pieces-op-7-siwy-koniu.krn
!!!cenid: 18xx:3387
!!!COM: Paderewski, Ignacy Jan
!!!COM-rismID: pe30029943
!!!CDT: 1860/11/18-1941/06/29
!!!CNT: Polish
!!!GTL: [Vocal pieces op. 7]
!!!OTL: Siwy koniu
!!!OMV: 002
!!!PDT:
!!!AGN:
!!!YEC: Copyright 2022 Narodowy Instytut Fryderyka Chopina (https://polishscores.org)
!!!YEM: License CC-BY-4.0 (https://creativecommons.org/licenses/by/4.0)
!!!SMS-siglum: PL-Wumfc
!!!SMS-shelfmark: R313
!!!SMS-shelfwork: 001-002 G
!!!SMS-variant:
!!!SMS-altvar:
!!!NIFC-rismSourceID: 1001159534
!!!NIFC-rismChildID: 1001159536
!!!NIFC-islandoraID: pl-wumfc:730
!!!URL-pdf-islandora: https://repozytorium.nifc.pl/islandora/object/pl-wumfc%3A730/datastream/PDF/view
!!!URL-scan: https://polish.musicsources.pl/pl/lokalizacje/galeria/rekopisy/4734 @EN{Scan on Polish Music Sources Website} @PL{Skany w portalu Dziedzictwo Muzyki Polskiej w otwartym dostępie}
!!!IIIF:
!!!ONB-nifc:
!!!OMD: Allegretto.
!!!OMD-mod: Allegretto
!!!AIN: 2 piano 1 vox
!!!key: G
**kern	**kern	**dynam	**kern	**dynam	**text	**mod-text	**text	**mod-text
*part3	*part2	*	*part1	*	*	*	*	*
*staff3	*staff2	*	*staff1	*	*	*	*	*
*I"[Fortepian]	*I"[Fortepian]	*	*I"[Głos]	*	*	*	*	*
*mI"[Pianoforte]	*mI"[Pianoforte]	*	*mI"[Voce]	*	*	*	*	*
*I'pf	*I'pf	*	*I'V	*	*	*	*	*
*Ipiano	*Ipiano	*	*Ivox	*	*	*	*	*
*ICklav	*ICklav	*	*ICxov	*	*	*	*	*
*IGacmp	*IGacmp	*	*IGsolo	*	*	*	*	*
*clefF4	*clefG2	*	*clefG2	*	*	*	*	*
*k[f#]	*k[f#]	*	*k[f#]	*	*	*	*	*
*G:	*G:	*	*G:	*	*	*	*	*
*M2/4	*M2/4	*	*M2/4	*	*	*	*	*
=1	=1	=1	=1	=1	=1	=1	=1	=1
8GG'\L	8r	.	2r	.	.	.	.	.
8D'\	8g 8e 8B/	.	.	.	.	.	.	.
8d'\	8r	.	.	.	.	.	.	.
8D'\J	8f# 8e 8c/	.	.	.	.	.	.	.
=2	=2	=2	=2	=2	=2	=2	=2	=2
8GG'\L	8r	.	2r	.	.	.	.	.
8D'\	8g 8e 8B/	.	.	.	.	.	.	.
8d'\	8r	.	.	.	.	.	.	.
8D'\J	8a 8f# 8e 8c/	.	.	.	.	.	.	.
=3	=3	=3	=3	=3	=3	=3	=3	=3
8GG'\L	8r	.	2r	.	.	.	.	.
8D'\	8b 8g 8e 8B/	.	.	.	.	.	.	.
8d'\	8r	.	.	.	.	.	.	.
8D'\J	8a 8f# 8c/	.	.	.	.	.	.	.
=4	=4	=4	=4	=4	=4	=4	=4	=4
8GG'\L	8r	.	2r	.	.	.	.	.
8D'\	8b 8g 8d 8B/	.	.	.	.	.	.	.
8d'\	8r	.	.	.	.	.	.	.
8D';>\J	8dd 8f# 8c;>/	.	.	.	.	.	.	.
=5	=5	=5	=5	=5	=5	=5	=5	=5
!	!	!LO:MO:mod=!null:null	!	!	!	!	!	!
!	!	!LO:DY:t=p.	!	!	!	!	!	!
8GG\L	8r	p	8b\	.	Si-	Si-	Gra-	Gra-
8D\	8f# 8e 8c/	.	8a/	.	-wy	-wy	-ues	-ues
8d\	8r	.	8g/	.	Ko-	ko-	Rüs-	Rüs-
8D\J	8f# 8e 8c/	.	8a/	.	-niu	-niu,	-slein	-slein,
!!LO:LB:g=original
=6	=6	=6	=6	=6	=6	=6	=6	=6
8GG\	8g 8d 8B/	.	8b\	.	si-	si-	gra-	gra-
4D\	8r	.	8a/	.	-wy	-wy	-ues	-ues
.	8r	.	8b\	.	Ko-	ko-	Rüs-	Rüs-
8D\	8f# 8e 8c/	.	8cc\	.	-niu	-niu	-slein!	-slein,
=7	=7	=7	=7	=7	=7	=7,	=7	=7
*	*^	*	*	*	*	*	*	*
8GG\	8g 8d 8B/	8ryyyy	.	8.dd\	.	coś	coś	Denkst	denkst
4D\	4.f#/	(<8e\L	.	.	.	.	.	.	.
.	.	.	.	16cc\	.	tak	tak	wohl	wohl
.	.	8d\	.	8b\	.	za-	za-	schwe-	schwe-
8DD\	.	8c\J)	.	8a/	.	-du-	-du-	-re	-re
*	*v	*v	*	*	*	*	*	*	*
=8	=8	=8	=8	=8	=8	=8	=8	=8
4GG\	4g 4d 4B/	.	8b/	.	-ma-	-ma-	Din-	Din-
.	.	.	8g/	.	-ny?	-ny?	-ge	-ge?
8G\L	4r	.	4r	.	.	.	.	.
8D\J	.	.	.	.	.	.	.	.
=9	=9	=9	=9	=9	=9	=9	=9	=9
8GL 8C\	8gL 8e/	p	8ee\	.	Nie	Nie	Wel-	Wel-
8GJ 8C\	8gJ 8e/	<	8ee\	.	wiész	wiesz	-che	-che
8GL 8BB\	8gL 8d/	.	8dd\	.	dro-	dro-	Straſ-	Stras-
8GJ 8BB\	8gJ 8d/	.	8dd\	.	-gi	-gi,	-se,	-se,
=10	=10	=10	=10	=10	=10	=10	=10	=10
8AA\L	8aL 8e 8c/	.	8cc\	.	nie	nie	wel-	wel-
8AA\J	8aJ 8e 8c/	[	8cc\	.	wiész	wiesz	-che	-che
8E\L	8gL 8e 8B/	.	8b\	.	dro-	dro-	Straſ-	Stras-
8E\J	8gJ 8e 8B/	.	8b\	.	-gi	-gi	-se	-se
!!LO:LB:g=original
=11	=11	=11	=11	=11	=11	=11	=11	=11
*^	*	*	*	*	*	*	*	*
4B/	(>8BB\L	(<8f#L 8d^>/	.	8dd\	.	do	do	mich	mich
!	!	!	!	!LO:MO:mod=!LO&colon;TX&colon;a&colon;i&colon;t=rall.	!	!	!	!	!
!	!	!	!	!LO:TX:a:t=rallentando.	!	!	!	!	!
.	8E\J)	8gJ 8e/)	.	8b\	.	méj	mej	zur	zur
4B/	(>8BB\L	(<8f#L 8d^>/	.	8dd\	.	u-	u-	Lieb-	Lieb-
.	8E\J)	8gJ 8e/)	.	8b\	.	-ko-	-ko-	-sten	-sten
=12	=12	=12	=12	=12	=12	=12	=12	=12	=12
4B/	(>8BB\L	(>8ddL 8f# 8d\	.	4.dd\	.	-cha-	-cha-	brin-	brin-
.	8E\J)	8bJ 8g 8e\)	.	.	.	.	.	.	.
!	!LO:SIC:s=8BL (8BB\:v	!LO:SIC:s=8ddL 8f# (8d\:v	!	!	!	!	!	!	!
4ryyyy	8BL 8BB\	8ddL 8f# 8d\	.	.	.	.	.	.	.
!	!LO:SIC:s=8AJ 8D\):v	!LO:SIC:s=8aJ 8f# 8d\):v	!	!	!	!	!	!	!
.	8AJ 8D\	8aJ 8f# 8d\	.	8a/	.	-nej	-nej?	-ge.	-ge?
=13	=13	=13	=13	=13	=13	=13	=13	=13	=13
!	!	!	!LO:DY:a:t=pp.	!	!	!	!	!	!
4A/	(>8AA\L	(>8ccL 8e 8c\	pp	2r	.	.	.	.	.
.	8D\J)	8aJ 8f# 8d\)	.	.	.	.	.	.	.
4A/	(>8AA\L	(>8ccL 8e 8c\	.	.	.	.	.	.	.
.	8D\J)	8aJ 8f# 8d\)	.	.	.	.	.	.	.
*v	*v	*	*	*	*	*	*	*	*
=14	=14	=14	=14	=14	=14	=14	=14	=14
*	*^	*	*	*	*	*	*	*
4A 4AA\	4cc 4e 4c\	4ryyyy	.	2r	.	.	.	.	.
(>8D\L	4a/	(<8fnL 8d\	.	.	.	.	.	.	.
16E\L	.	16g\L	.	.	.	.	.	.	.
16D\JJ)	.	16f\JJ)	.	.	.	.	.	.	.
=15	=15	=15	=15	=15	=15	=15	=15	=15	=15
(>8C\L	4e/	(<8e\L	.	8e/	.	Na-	Na-	Un-	Un-
16BB\L	.	16d\L	.	8f#/	.	-sza	-sza	-ser	-ser
16AA\JJ)	.	16c\JJ)	.	.	.	.	.	.	.
8GG'>\L	4e/	8B'<\L	.	8g/	.	mi-	mi-	Lieb	Lieb
8FF#'>\J	.	8A'<\J	.	8a/	.	-ła	-ła	hat	hat
*	*v	*v	*	*	*	*	*	*	*
!!LO:LB:g=original
=16	=16	=16	=16	=16	=16	=16	=16	=16
*^	*	*	*	*	*	*	*	*
(8A/L	4BB\	4d#X/	.	8b\	.	nas	nas	uns	uns
16B/L	.	.	.	8b\	.	rzu-	rzu-	ver-	ver-
16A/JJ)	.	.	.	.	.	.	.	.	.
(16A/LL	4C\	4e/	.	8b\	.	-ci-	-ci-	-las-	-las-
16B/J	.	.	.	.	.	.	.	.	.
8G/J)	.	.	.	8e/	.	-ła	-ła	,-sen	-sen
=17	=17	=17	=17	=17	=17	=17	=17	=17	=17
*	*	*^	*	*	*	*	*	*	*
4G/	8E\L	4g/	8g\L	.	8g/	.	nie	nie	O-	o-
.	(>16D\L	.	16f#\L	.	8a/	.	wy-	wy-	-hne	-hne
.	16C#X\JJ	.	16e\JJ	.	.	.	.	.	.	.
4ryyyy	8BB'\L)	4g/	8d\L	.	8b\	.	-rzekł-	-rzekł-	es	es
.	8AA#X'\J	.	8c#X\J	.	8cc#X\	.	-szy	-szy	zu	zu
*v	*v	*	*	*	*	*	*	*	*	*
=18	=18	=18	=18	=18	=18	=18	=18	=18	=18
[>4D#X\	4f##X/	8c#X\L	.	(>8dd#X\L	.	sło-	sło-	Kün-	Kün-
.	.	(>16d#X\L	.	16b\L	.	.	.	.	.
.	.	16c#\JJ)	.	16cc#X\J	.	.	.	.	.
!	!	!	!	!LO:MO:mod=!LO&colon;TX&colon;a&colon;i&colon;t=rit.	!	!	!	!	!
!	!LO:TX:b:i:t=rit.	!	!	!LO:TX:b:t=rit.	!	!	!	!	!
4D#] 4GG#X\	4g#X/	(>16c#\LL	.	8dd#\J)	.	.	.	.	.
.	.	16d#\J	.	.	.	.	.	.	.
!	!	!	!	!	!LO:DY:a:t=p.	!	!	!	!
.	.	8B\J)	.	8dd#\	p	-wa	-wa.	-sten,	-sten.
*	*v	*v	*	*	*	*	*	*	*
=19	=19	=19	=19	=19	=19	=19	=19	=19
4G#X 4GG#X\	4b 4fn 4B/	.	8ddn\	.	Jak	Jak	Wit-	Wit-
.	.	.	8ee\	.	nie	nie	-terst	-terst
4A 4AA\	4a 4e 4c/	.	8dd\	.	znaj-	znaj-	du	du
.	.	.	8cc\	.	-dziesz	-dziesz	nicht	nicht
=20	=20	=20	=20	=20	=20	=20	=20	=20
4D#X 4DD#X\	4f#X 4c 4A/	.	8a/	.	do	do	nach	nach
.	.	.	8b/	.	niej	niej	vie	vie
4E 4EE\	4e 4B< 4G</	.	8a/	.	dro-	dro-	Straſ-	Stras-
.	.	.	8g/	.	-gi	-gi,	-se	-se,
!!LO:PB:g=original
=21	=21	=21	=21	=21	=21	=21	=21	=21
2AA\	2e 2c 2F#</	.	8f#/	.	zgi-	zgi-	Kann	kann
.	.	.	8g/	.	-nąć	-nąć	sie	sie
.	.	.	8f#/	.	nam	nam	uns	uns
.	.	.	8cc\	.	go-	go-	ent-	ent-
=22	=22	=22	=22	=22	=22	=22	=22	=22
*^	*^	*	*	*	*	*	*	*
!	!	!	!	!	!LO:TX:t=P:problem=mixed beam	!	!	!	!	!
2F#/	2BB\	2d#X/	4B\	.	8b\L	.	-to-	-to-	-schwin-	-schwin-
.	.	.	.	.	8a/J	.	.	.	.	.
!	!	!	!	!	!LO:TUP:a:problem=klamra łukowa	!	!	!	!	!
.	.	.	4A\	.	12g/L	.	.	.	.	.
.	.	.	.	.	12a/	.	.	.	.	.
.	.	.	.	.	12f#/J	.	-wa	-wa,	-den,	-den,
*v	*v	*	*	*	*	*	*	*	*	*
*	*v	*v	*	*	*	*	*	*	*
=23	=23	=23	=23	=23	=23	=23	=23	=23
4C\	4e 4G< 4E</	.	8e/	.	zgi-	zgi-	kann	kann
.	.	.	8g/	.	-nąć	-nąć	sie	sie
4FF#\	4e 4A#X< 4E</	.	8f#/	.	nam	nam	uns	uns
.	.	.	8cc\	.	go-	go-	et-	et-
=24	=24	=24	=24	=24	=24	=24	=24	=24
!	!	!	!	!LO:DY:a	!	!	!	!
4BB 4BBB\	4d#X 4B< 4D#X</	.	4.b\	<	-to-	-to-	-schwin-	-schwin-
4EE-X\	4e-X 4B< 4G< 4E-X</	.	.	.	.	.	.	.
.	.	.	8b,\	[	-wa	-wa.	-den.	-den.
=25	=25	=25	=25	=25	=25	=25	=25	=25
!	!	!	!LO:MO:mod=!LO&colon;TX&colon;a&colon;B&colon;t=A tempo	!	!	!	!	!
!	!	!	!LO:TX:a:t=a tempo.	!	!	!	!	!
8GG 8GGG\	8dn 8B< 8G< 8Dn</	.	8b\	.	Si-	Si-	Gra-	Gra-
8D\L	8f# 8e 8c/	.	8a/	.	-wy	-wy	-ues	-ues
8d\	8r	.	8g/	.	Ko-	ko-	Rüs-	Rüs-
8D\J	8f# 8e 8c/	.	8a/	.	-niu	-niu,	-slein,	-slein,
!!LO:LB:g=original
=26	=26	=26	=26	=26	=26	=26	=26	=26
8GG\	8g 8d 8B/	.	8b\	.	Si-	si-	gra-	gra-
4D\	8r	.	8a/	.	-wy	-wy	-ues	-ues
.	8r	.	8b\	.	Ko-	ko-	Rüs-	Rüs-
8D\	(>8f# 8e (<8c/	.	8cc\	.	-niu	-niu,	-slein,	-slein,
=27	=27	=27	=27	=27	=27	=27	=27	=27
*	*^	*	*	*	*	*	*	*
8AA\	8g 8d 8B/))	8ryyyy	.	8dd\	.	Cię-	cię-	Schwer	schwer
4D\	4.f#/	(<8e\L	.	8cc\	.	-żko	-żko	musst	musst
.	.	8d\	.	8b\	.	to-	to-	du	du
8DD\	.	8c\J)	.	8a/	.	-bie	-bie	jetzt	jetzt
*	*v	*v	*	*	*	*	*	*	*
=28	=28	=28	=28	=28	=28	=28	=28	=28
8GG\L	4.g 4.d 4.B/	.	4b/	.	bę-	bę-	lau-	lau-
8D\	.	.	.	.	.	.	.	.
8G\	.	.	8g/	.	-dzie	-dzie.	-fen,	-fen.
8GG\J	8r	.	8r	.	.	.	.	.
=29	=29	=29	=29	=29	=29	=29	=29	=29
(>16CC\LL	8gL 8e 8G</	.	8ee\	.	Prze-	Prze-	ü-	Ü-
16GG\J	.	.	.	.	.	.	.	.
!	!	!	!	!LO:DY:a	!	!	!	!
8CC\J)	8gJ 8e 8G</	.	8ee\	<	-go-	-go-	-ber-	-ber-
(>16CC\LL	8gL 8d 8G</	.	8dd\	.	-ni-	-ni-	-ha-	-ha-
16GG\J	.	.	.	.	.	.	.	.
!	!LO:MO:mod=!null:null	!LO:MO:mod=!null:null	!	!	!	!	!	!
!	!LO:TX:b:t=cres-cen-do:ext=cd:problem=dynamics with extention lines	!LO:HP:t=cres-cen-do:ext=cd	!	!	!	!	!	!
8CC\J)	8gJ 8d 8G</	<	8dd\	.	-my	-my	-len	-len
=30	=30	=30	=30	=30	=30	=30	=30	=30
16AAA\LL	8eL 8c 8A</	.	8cc\	.	wiatr	wiatr,	win-	win-
16EE\	.	.	.	.	.	.	.	.
16AAA\	8eJ 8c 8A</	.	8cc\	.	co	co	-des	-des
16EE\JJ	.	.	.	.	.	.	.	.
*8ba	*	*	*	*	*	*	*	*
16EEE\LL	8eL 8B 8G</	.	8b\	[	wie-	wie-	we-	we-
16EE\	.	.	.	.	.	.	.	.
16EEE\	8eJ 8B 8G</	.	8b\	.	-je	-je,	-hen,	-hen,
16EE\JJ	.	.	.	.	.	.	.	.
*X8ba	*	*	*	*	*	*	*	*
!!LO:LB:g=original
=31	=31	=31	=31	=31	=31	=31	=31	=31
!LO:TUP:a:problem=klamra łukowa	!	!	!	!	!	!	!	!
24BBB\LL	8r	.	8dd\	.	nie	nie	O-	o-
24FF#\	.	.	.	.	.	.	.	.
24D\JJ	.	.	.	.	.	.	.	.
!	!LO:TUP:a:problem=klamra łukowa	!	!	!LO:DY:a	!	!	!	!
8rGG	24D</LL	.	8b\	<	spo-	spo-	-hne	-hne
.	24F#</	.	.	.	.	.	.	.
.	24d/JJ	.	.	.	.	.	.	.
!LO:TUP:a:problem=klamra łukowa	!	!	!	!	!	!	!	!
24BB\LL	8r	.	8dd\	.	-cznie-	-cznie-	aus-	aus-
24F#\	.	.	.	.	.	.	.	.
24B\JJ	.	.	.	.	.	.	.	.
!	!LO:TUP:b:problem=klamra łukowa	!	!	!	!	!	!	!
8r	24d/LL	<	8b\	.	-my	-my	-zu-	-zu-
.	24f#/	.	.	.	.	.	.	.
.	24dd/JJ	.	.	.	.	.	.	.
=32	=32	=32	=32	=32	=32	=32	=32	=32
!LO:TUP:a:problem=klamra łukowa	!	!	!	!	!	!	!	!
24AAA\LL	8r	.	4.dd\	.	w_pę-	w_pę-	-schnau-	-schnau-
24DD\	.	.	.	.	.	.	.	.
24C\JJ	.	[	.	.	.	.	.	.
!	!LO:TUP:a:problem=klamra łukowa	!	!	!	!	!	!	!
8r	24D/LL	.	.	.	.	.	.	.
.	24F#/	.	.	.	.	.	.	.
.	24d/JJ	.	.	.	.	.	.	.
!LO:TUP:a:problem=klamra łukowa	!	!	!	!	!	!	!	!
24AA\LL	8r	.	.	.	.	.	.	.
24D\	.	.	.	.	.	.	.	.
24c\JJ	.	.	.	.	.	.	.	.
!	!LO:TUP:b:problem=klamra łukowa	!	!	!	!	!	!	!
!	!	!	!	!LO:MO:mod=[[	!	!	!	!
8r	24d/LL	.	8dd\	[	-dzie	-dzie.	-fen	-fen.
.	24f#/	.	.	.	.	.	.	.
.	24dd/JJ	.	.	.	.	.	.	.
=33	=33	=33	=33	=33	=33	=33	=33	=33
*^	*	*	*	*	*	*	*	*
!	!	!	!	!LO:MO:mod=!LO&colon;TX&colon;a&colon;i&colon;t=rit.	!	!	!	!	!
!	!	!	!	!LO:TX:a:t=rit	!LO:DY:a	!	!	!	!
8ryy	16GGG\LL	8r<	f	8.gg\	f	Si-	Si-	Gra-	Gra-
.	16GG\JJ	.	.	.	.	.	.	.	.
!	!	!LO:TUP:a:problem=klamra łukowa	!	!	!	!	!	!	!
8rD	40rCCyy	40D</LLL	.	.	.	.	.	.	.
.	40ryy	40G</	.	.	.	.	.	.	.
.	40ryy	40B</	.	.	.	.	.	.	.
.	.	.	.	16ee\	.	-wy	-wy	-ues	-ues
.	40ryy	40d</JJJ	.	.	.	.	.	.	.
.	[>40D\	40ryy	.	.	.	.	.	.	.
4c 4A/	4D\]	4dd 4f# 4d/	.	8dd\	.	Ko-	ko-	Rüs-	Rüs-
.	.	.	.	8dd\	.	-niu	-niu,	-slein,	-slein,
=34	=34	=34	=34	=34	=34	=34	=34	=34	=34
8ryy	16GGG\LL	8r<	.	8ee\	.	Si-	si-	gra-	gra-
.	16GG\JJ	.	.	.	.	.	.	.	.
!	!	!LO:TUP:a:problem=klamra łukowa	!	!	!	!	!	!	!
8rD	40rCCyy	40D</LLL	.	8b\	.	-wy	-wy	-ues	-ues
.	40ryy	40G</	.	.	.	.	.	.	.
.	40ryy	40B</	.	.	.	.	.	.	.
.	40ryy	40d</JJJ	.	.	.	.	.	.	.
.	[>40D\	40ryy	.	.	.	.	.	.	.
4c 4A/	4D\]	4dd 4f# 4d/	.	8dd\	.	Ko-	ko-	Rüs-	Rüs-
.	.	.	.	8dd\	.	-niu	-niu,	-slein,	-slein,
=35	=35	=35	=35	=35	=35	=35	=35	=35	=35
8ryy	16GGG\LL	8r<	.	8cc\	.	cię-	cię-	mir	mir
.	16GG\JJ	.	.	.	.	.	.	.	.
!	!	!LO:TUP:a:problem=klamra łukowa	!	!	!	!	!	!	!
8rD	40rCCyy	40E-X</LLL	.	8b\	.	-żej	-żej	wind	wind
.	40ryy	40G</	.	.	.	.	.	.	.
.	40ryy	40A</	.	.	.	.	.	.	.
.	40ryy	40e-X</JJJ	.	.	.	.	.	.	.
.	[>40E-\	40ryy	.	.	.	.	.	.	.
4e- 4A/	4E-\]	4gg 4cc 4g\	.	8a/	.	ser-	ser-	schwer	schwer
.	.	.	.	8g/	.	-cu	-cu	am	am
!!LO:LB:g=original
=36	=36	=36	=36	=36	=36	=36	=36	=36	=36
8ryy	16GGG\LL	8r<	.	4.b/	.	me-	me-	Her-	Her-
.	16GG\JJ	.	.	.	.	.	.	.	.
!	!	!LO:TUP:a:problem=klamra łukowa	!	!	!	!	!	!	!
8r	40rCCyy	40E-X</LLL	.	.	.	.	.	.	.
.	40ryy	40G</	.	.	.	.	.	.	.
.	40ryy	40A</	.	.	.	.	.	.	.
.	40ryy	40e-X</JJJ	.	.	.	.	.	.	.
.	[>40E-\	40ryy	.	.	.	.	.	.	.
4e- 4G/	4E-\]	4bb 4ee-X 4b\	.	.	.	.	.	.	.
.	.	.	.	8e-X/	.	-mu	-mu,	-zen	-zen,
=37	=37	=37	=37	=37	=37	=37	=37	=37	=37
!	!	!	!LO:DY:a:t=p.	!	!	!	!	!	!
8G 8GG\	8ryyyy	8bb 8dd 8b\	p	8d/	.	Bo	bo	denn	denn
4.G/	8BB\L	8gL 8d/	<	8g/	.	stra-	stra-	die	die
.	8C\	8a 8e/	.	8a/	.	-ci-	-ci-	Hof-	Hof-
.	8D\J	8bJ 8f#/	[	8b/	.	-ło	-ło	-fnung	-fnung
=38	=38	=38	=38	=38	=38	=38	=38	=38	=38
*	*	*	*^	*	*	*	*	*	*
!	!	!	!	!	!LO:MO:mod=!LO&colon;TX&colon;a&colon;i&colon;t=rall. molto	!	!	!	!	!
!	!	!	!LO:MO:mod=!null:null	!	!	!	!	!	!	!
!	!	!	!LO:HP:a	!LO:HP:b=2	!LO:TX:a:t=rallentando molto:problem=text with extention	!	!	!	!	!
!	!	!	!	!LO:MO:mod=.	!	!	!	!	!	!
4G/	(>8C\L	(>8ddL 8e\	>	>	8dd\	.	już	już	floh	floh
!	!	!	!	!LO:MO:mod=.	!	!	!	!	!	!
.	8GG\J)	8bJ 8d\)	]	]	8b\	.	na-	na-	und	und
!	!	!	!LO:MO:mod=!null:null	!	!	!	!	!	!	!
!	!	!	!LO:HP:a	!	!	!	!	!	!	!
4G/	8C\L	(>8ddL 8e\	>	.	8dd\	.	-dzie-	-dzie-	e-	e-
.	8GG\J	8bJ 8d\)	]	.	8b\	.	-ję	-ję,	-wig	-wig,
*	*	*	*v	*v	*	*	*	*	*	*
=39	=39	=39	=39	=39	=39	=39	=39	=39	=39
4B/	(>8BB\L	(>8ddL 8f# 8d/	>	8dd\	.	sa-	sa-	fühl	fühl
.	8E\J)	8bJ 8g 8e/)	]	8b\	.	-mo	-mo	ich	ich
4ryyyy	8BBL 8BBB\	(>8d<L 8F#< 8D</	>	8dd\	.	nie	nie	Tren-	Tren-
.	8BBJ 8EE\	8B<J 8G< 8E</)	]	8b\	.	wie	wie	-nungs	-nungs
*v	*v	*	*	*	*	*	*	*	*
=40	=40	=40	=40	=40	=40	=40	=40	=40
!	!	!	!LO:MO:mod=!null:null	!	!	!	!	!
!	!	!	!LO:N:vis=2	!	!	!	!	!
4AA 4AAA\	4e 4c 4G< 4E</	>	(4a/	.	cze-	cze-	schmer-	schmer-
4AA 4DD\	4f# 4d 4c< 4F#</	]	4g/)	.	.	.	.	.
!!LO:PB:g=original
=41	=41	=41	=41	=41	=41	=41	=41	=41
8GG 8GGG\	8gL 8d 8B 8G/	.	4g/	.	-mu.	-mu.	-zen.	-zen.
8D'\L	8gJ 8e 8B/	.	.	.	.	.	.	.
!	!LO:MO:mod=!null:null	!	!	!	!	!	!	!
!	!LO:TX:a:t=(O.18/9. 85 r.)	!	!	!	!	!	!	!
8d'\	8r	.	4r	.	.	.	.	.
8D'\J	8f# 8e 8c/	.	.	.	.	.	.	.
=42	=42	=42	=42	=42	=42	=42	=42	=42
8GG'\L	8r	.	2r	.	.	.	.	.
8D'\	8g 8e 8B/	.	.	.	.	.	.	.
8d'\	8r	.	.	.	.	.	.	.
8D'\J	8a 8f# 8e 8c/	.	.	.	.	.	.	.
=43	=43	=43	=43	=43	=43	=43	=43	=43
8GG\L	8r	.	2r	.	.	.	.	.
8D\	8b 8g 8d 8B/	.	.	.	.	.	.	.
8d\	8r	.	.	.	.	.	.	.
8D\J	8dd 8a 8f# 8c/	.	.	.	.	.	.	.
=44	=44	=44	=44	=44	=44	=44	=44	=44
8GG\L	8r	.	2r	.	.	.	.	.
8D\	8gg 8ee 8b 8g\	.	.	.	.	.	.	.
8d\	8r	.	.	.	.	.	.	.
8D\J	8aa 8ff# 8cc 8a\	.	.	.	.	.	.	.
=45	=45	=45	=45	=45	=45	=45	=45	=45
!LO:MO:mod=*ped:null	!LO:MO:mod=*null:null	!	!	!	!	!	!	!
*null	*ped	*	*	*	*	*	*	*
8GG\L	8r	.	2r	.	.	.	.	.
8D\	[8bb [8gg [8dd [8b\	.	.	.	.	.	.	.
8G\	4bb] 4gg] 4dd] 4b\]	.	.	.	.	.	.	.
8d\J	.	.	.	.	.	.	.	.
=46	=46	=46	=46	=46	=46	=46	=46	=46
*clefG2	*	*	*	*	*	*	*	*
*	*8va	*	*	*	*	*	*	*
2dd 2g;\	2bbb 2ggg 2ddd 2bb;\	.	2r	.	.	.	.	.
*	*X8va	*	*	*	*	*	*	*
!LO:MO:mod=*Xped:null	!LO:MO:mod=*null:null	!	!	!	!	!	!	!
*null	*Xped	*	*	*	*	*	*	*
!!LO:LB:g=original
==	==	==	==	==	==	==	==	==
*-	*-	*-	*-	*-	*-	*-	*-	*-
!!!system-decoration: s1{(s2,s3)}
!!!RDF**kern: < = below
!!!RDF**kern: > = above
!!!filter-modern: sic -sq | shed -e "s/LO:DY:(a|b|rj)/LO:dy:$1/L" | shed -e "s/TX(.*):t=P:/tx$1:t=P:/LG" | modori -m | autostem -r | shed -e "s/yy//" | shed -k -e "s/\(y([^y])/($1/" | shed -e "s/-//B" | shed -k -e "s/[<>]//g" | shed -k -e "s/:TUP:/:tup:/L"
!!!ENC: Anastazja Marusiak
!!!END: 2021-12-06
!!!EED: Marta Chmielewska
!!!EEV: 2021-12-20
!!!EED-modern: Antoni Szymański
!!!END-modern: 2022-09-07
